svg/flask.svg

<svg xmlns="http://www.w3.org/2000/svg" viewBox="0 0 24 24"><path d="M6 22a3 3 0 0 1-3-3c0-.6.18-1.16.5-1.63L9 7.81V6a1 1 0 0 1-1-1V4a2 2 0 0 1 2-2h4a2 2 0 0 1 2 2v1a1 1 0 0 1-1 1v1.81l5.5 9.56c.32.47.5 1.03.5 1.63a3 3 0 0 1-3 3zm-1-3a1 1 0 0 0 1 1h12a1 1 0 0 0 1-1c0-.21-.07-.41-.18-.57l-2.29-3.96L14 17l-5.07-5.07-3.75 6.5c-.11.16-.18.36-.18.57m8-9a1 1 0 0 0-1 1 1 1 0 0 0 1 1 1 1 0 0 0 1-1 1 1 0 0 0-1-1"/></svg>

<?xml version="1.0" encoding="UTF-8"?><!DOCTYPE svg PUBLIC "-//W3C//DTD SVG 1.1//EN" "http://www.w3.org/Graphics/SVG/1.1/DTD/svg11.dtd"><svg xmlns="http://www.w3.org/2000/svg" xmlns:xlink="http://www.w3.org/1999/xlink" version="1.1" id="mdi-flask" width="24" height="24" viewBox="0 0 24 24"><path d="M6,22A3,3 0 0,1 3,19C3,18.4 3.18,17.84 3.5,17.37L9,7.81V6A1,1 0 0,1 8,5V4A2,2 0 0,1 10,2H14A2,2 0 0,1 16,4V5A1,1 0 0,1 15,6V7.81L20.5,17.37C20.82,17.84 21,18.4 21,19A3,3 0 0,1 18,22H6M5,19A1,1 0 0,0 6,20H18A1,1 0 0,0 19,19C19,18.79 18.93,18.59 18.82,18.43L16.53,14.47L14,17L8.93,11.93L5.18,18.43C5.07,18.59 5,18.79 5,19M13,10A1,1 0 0,0 12,11A1,1 0 0,0 13,12A1,1 0 0,0 14,11A1,1 0 0,0 13,10Z" /></svg>
